X:162
T:Le bonhomme et la bonne femme
M:2/4
L:1/16
K:D
FG |: ABAF DFAF | GAGF E2cd | efec Acec | dedB A2FG |
ABAF DFAF | GFGF E2cd | efec Acec | dfec d2FG ::
AddA d2cB | AccA c2EF | GBBG B2AG | FGAB A2FG |
AddA d2cB | AccA c2EF | GBBG B2AG | FDEC D2F&lt;G :|

